dist/images/icon/fb.svg

<svg width="35" height="35" viewBox="0 0 35 35" fill="none" xmlns="http://www.w3.org/2000/svg">
<path d="M28.0005 17.4899C28.0005 11.6941 23.2965 6.99023 17.5005 6.99023C11.7045 6.99023 7.00049 11.6941 7.00049 17.4899C7.00049 22.5717 10.6125 26.8031 15.4005 27.7796V20.6398H13.3005V17.4899H15.4005V14.865C15.4005 12.8386 17.049 11.1901 19.0755 11.1901H21.7005V14.34H19.6005C19.023 14.34 18.5505 14.8125 18.5505 15.39V17.4899H21.7005V20.6398H18.5505V27.9371C23.853 27.4121 28.0005 22.9392 28.0005 17.4899Z" fill="#202020"/>
<rect x="0.5" y="0.5" width="34" height="34" rx="6.5" stroke="#202020"/>
</svg>

<svg width="35" height="35" fill="none" xmlns="http://www.w3.org/2000/svg"><path d="M28 17.49c0-5.796-4.703-10.5-10.5-10.5-5.796 0-10.5 4.704-10.5 10.5 0 5.082 3.613 9.313 8.4 10.29v-7.14h-2.1v-3.15h2.1v-2.625a3.679 3.679 0 013.676-3.675H21.7v3.15h-2.1c-.578 0-1.05.473-1.05 1.05v2.1h3.15v3.15h-3.15v7.297C23.852 27.412 28 22.94 28 17.49z" fill="#202020"/><rect x=".5" y=".5" width="34" height="34" rx="6.5" stroke="#202020"/></svg>
